X: 3
T: 250 To Vigo
R: reel
M: 4/4
L: 1/8
K: Bmin
|"Bm" B2fzBf2B| "Bm-5"=f4 edBA | "Bm"B2fzBf2B| "Bm-5" =f4 edBA |"Bm"B2fzBf2B|"Bm-5" =f4 edBA | "Bm"B2fzBf2B| e8 ||


Tune 2711	Setting 15944

